X:1
T: The 74th Highlanders Quickstep
C:
R:Reel
I:speed 232
Q:232
K:A
M:4/4
L:1/8
|:e2|a4 e2a2|cA cd e2dc|BB=g2 dd g2|B=G B=c d2^cB|
a4 e2a2|cAcd e2af|e2dc Bc de|c2A2 A2:|
|:e2|AB cd eA cA|eA aA c2BA|=GAB=c dB GB|dB=gd B2AG|
AB cd eA cA|eA aA c2 e2|dd BA GA Bd|c2 A2 A2:|
